docs/img/map-marker.svg

<svg width="80" height="101" viewBox="0 0 80 101" fill="none" xmlns="http://www.w3.org/2000/svg">
<path d="M11.9604 11.9604C27.4023 -3.48158 52.4386 -3.48158 67.8806 11.9604C83.3225 27.4023 83.3225 52.4386 67.8806 67.8806C52.4386 83.3225 27.4023 83.3225 11.9604 67.8806C-3.48158 52.4386 -3.48158 27.4023 11.9604 11.9604Z" fill="#E6C783"/>
<path d="M11.7076 45.1681C10.4436 45.1681 9.37963 44.8681 8.51562 44.2681V42.4681C8.86763 42.7721 9.33163 43.0361 9.90763 43.2601C10.4916 43.4761 11.0676 43.5841 11.6356 43.5841C12.1076 43.5841 12.4956 43.5001 12.7996 43.3321C13.1036 43.1561 13.2556 42.9161 13.2556 42.6121C13.2556 42.2841 13.1116 42.0521 12.8236 41.9161C12.7036 41.8441 12.5436 41.7721 12.3436 41.7001L12.0556 41.6041L11.3836 41.4001L10.7596 41.1961C10.6716 41.1721 10.4836 41.1041 10.1956 40.9921C9.94763 40.8961 9.76763 40.8121 9.65563 40.7401C9.23963 40.4521 8.97563 40.2081 8.86363 40.0081C8.67163 39.6241 8.57562 39.2321 8.57562 38.8321C8.57562 38.0881 8.85962 37.5041 9.42763 37.0801C9.99563 36.6481 10.7676 36.4321 11.7436 36.4321C12.7276 36.4321 13.6436 36.6641 14.4916 37.1281V38.8081C13.6356 38.2801 12.7276 38.0161 11.7676 38.0161C10.8156 38.0161 10.3396 38.2921 10.3396 38.8441C10.3396 39.0841 10.4876 39.2761 10.7836 39.4201C10.9596 39.5161 11.1876 39.6001 11.4676 39.6721C11.8436 39.7761 12.1476 39.8641 12.3796 39.9361C13.0756 40.1521 13.6836 40.4441 14.2036 40.8121C14.7636 41.2041 15.0436 41.7881 15.0436 42.5641C15.0436 43.3721 14.7276 44.0081 14.0956 44.4721C13.4636 44.9361 12.6676 45.1681 11.7076 45.1681Z" fill="black"/>
<path d="M15.6721 38.1481V36.6001H22.7161V38.1481H20.0521V45.0001H18.3241V38.1481H15.6721Z" fill="black"/>
<path d="M27.4857 45.1681C26.4377 45.1681 25.5777 44.8441 24.9057 44.1961C24.2337 43.5481 23.8977 42.6401 23.8977 41.4721V36.6001H25.6137V41.5321C25.6137 42.1801 25.7817 42.6801 26.1177 43.0321C26.4617 43.3761 26.9177 43.5481 27.4857 43.5481C28.0617 43.5481 28.5177 43.3761 28.8537 43.0321C29.1977 42.6801 29.3697 42.1801 29.3697 41.5321V36.6001H31.0977V41.4721C31.0977 42.6401 30.7577 43.5481 30.0777 44.1961C29.4057 44.8441 28.5417 45.1681 27.4857 45.1681Z" fill="black"/>
<path d="M35.9739 45.0001H32.8299V36.6001H35.9739C37.3339 36.6001 38.4419 36.9921 39.2979 37.7761C40.1539 38.5601 40.5819 39.5681 40.5819 40.8001C40.5819 42.0401 40.1539 43.0521 39.2979 43.8361C38.4499 44.6121 37.3419 45.0001 35.9739 45.0001ZM34.5579 38.1481V43.4521H35.8299C36.7659 43.4521 37.4939 43.2201 38.0139 42.7561C38.5419 42.2841 38.8059 41.6321 38.8059 40.8001C38.8059 39.9681 38.5419 39.3201 38.0139 38.8561C37.4939 38.3841 36.7659 38.1481 35.8299 38.1481H34.5579Z" fill="black"/>
<path d="M43.9223 45.0001H42.2063V36.6001H43.9223V45.0001Z" fill="black"/>
<path d="M48.034 42.7681C48.53 43.2881 49.15 43.5481 49.894 43.5481C50.63 43.5481 51.246 43.2881 51.742 42.7681C52.238 42.2481 52.486 41.5921 52.486 40.8001C52.486 40.0081 52.238 39.3521 51.742 38.8321C51.246 38.3121 50.63 38.0521 49.894 38.0521C49.15 38.0521 48.53 38.3121 48.034 38.8321C47.546 39.3441 47.302 40.0001 47.302 40.8001C47.302 41.6001 47.546 42.2561 48.034 42.7681ZM45.538 40.8001C45.538 39.5681 45.95 38.5361 46.774 37.7041C47.598 36.8561 48.638 36.4321 49.894 36.4321C51.142 36.4321 52.178 36.8561 53.002 37.7041C53.834 38.5521 54.25 39.5841 54.25 40.8001C54.25 42.0081 53.834 43.0401 53.002 43.8961C52.178 44.7441 51.142 45.1681 49.894 45.1681C48.638 45.1681 47.598 44.7441 46.774 43.8961C45.95 43.0481 45.538 42.0161 45.538 40.8001Z" fill="black"/>
<path d="M60.9807 45.1681C59.9887 45.1681 59.1367 44.9441 58.4247 44.4961V42.8521C59.1607 43.3641 59.9807 43.6201 60.8847 43.6201C61.3967 43.6201 61.8167 43.4961 62.1447 43.2481C62.4727 42.9921 62.6367 42.6481 62.6367 42.2161C62.6367 41.8081 62.4847 41.4801 62.1807 41.2321C61.8767 40.9761 61.4727 40.8481 60.9687 40.8481C60.5607 40.8481 60.1647 40.9241 59.7807 41.0761V39.9361L61.7847 38.0881H58.6887V36.6001H63.9927V37.8961L62.0967 39.6361C62.6967 39.7401 63.2247 40.0161 63.6807 40.4641C64.1367 40.9041 64.3647 41.4881 64.3647 42.2161C64.3647 43.1121 64.0407 43.8281 63.3927 44.3641C62.7527 44.9001 61.9487 45.1681 60.9807 45.1681Z" fill="black"/>
<path d="M71.0504 45.0001H69.3704V42.9001H65.1584V41.6521L69.3464 36.6001H71.0504V41.5081H72.2864V42.9001H71.0504V45.0001ZM69.3704 38.7721L67.0664 41.5081H69.3704V38.7721Z" fill="black"/>
<path opacity="0.2" d="M44 98.5005C44 99.8812 42.2091 101 40 101C37.7909 101 36 99.8812 36 98.5005C36 97.1198 37.7909 96.0005 40 96.0005C42.2091 96.0005 44 97.1198 44 98.5005Z" fill="#C4C4C4"/>
<path d="M42 76.0005H38V89.0005H42V76.0005Z" fill="#E6C783"/>
</svg>

<svg width="80" height="101" viewBox="0 0 80 101" fill="none" xmlns="http://www.w3.org/2000/svg"><path d="M11.96 11.96c15.442-15.442 40.479-15.442 55.92 0 15.443 15.442 15.443 40.479 0 55.92-15.441 15.443-40.478 15.443-55.92 0-15.442-15.441-15.442-40.478 0-55.92z" fill="#E6C783"/><path d="M11.708 45.168c-1.264 0-2.328-.3-3.192-.9v-1.8c.352.304.816.568 1.392.792.584.216 1.16.324 1.728.324.472 0 .86-.084 1.164-.252.304-.176.456-.416.456-.72 0-.328-.144-.56-.432-.696a2.789 2.789 0 00-.48-.216l-.288-.096-.672-.204-.624-.204a7.54 7.54 0 01-.564-.204 3.224 3.224 0 01-.54-.252c-.416-.288-.68-.532-.792-.732a2.603 2.603 0 01-.288-1.176c0-.744.284-1.328.852-1.752.568-.432 1.34-.648 2.316-.648.984 0 1.9.232 2.748.696v1.68c-.856-.528-1.764-.792-2.724-.792-.952 0-1.428.276-1.428.828 0 .24.148.432.444.576.176.096.404.18.684.252.376.104.68.192.912.264a6.434 6.434 0 011.824.876c.56.392.84.976.84 1.752 0 .808-.316 1.444-.948 1.908-.632.464-1.428.696-2.388.696zm3.964-7.02V36.6h7.044v1.548h-2.664V45h-1.728v-6.852h-2.652zm11.814 7.02c-1.048 0-1.908-.324-2.58-.972-.672-.648-1.008-1.556-1.008-2.724V36.6h1.716v4.932c0 .648.168 1.148.504 1.5.344.344.8.516 1.368.516.576 0 1.032-.172 1.368-.516.344-.352.516-.852.516-1.5V36.6h1.728v4.872c0 1.168-.34 2.076-1.02 2.724-.672.648-1.536.972-2.592.972zM35.974 45H32.83v-8.4h3.144c1.36 0 2.468.392 3.324 1.176.856.784 1.284 1.792 1.284 3.024 0 1.24-.428 2.252-1.284 3.036-.848.776-1.956 1.164-3.324 1.164zm-1.416-6.852v5.304h1.272c.936 0 1.664-.232 2.184-.696.528-.472.792-1.124.792-1.956 0-.832-.264-1.48-.792-1.944-.52-.472-1.248-.708-2.184-.708h-1.272zM43.922 45h-1.716v-8.4h1.716V45zm4.112-2.232c.496.52 1.116.78 1.86.78.736 0 1.352-.26 1.848-.78s.744-1.176.744-1.968-.248-1.448-.744-1.968-1.112-.78-1.848-.78c-.744 0-1.364.26-1.86.78-.488.512-.732 1.168-.732 1.968s.244 1.456.732 1.968zM45.538 40.8c0-1.232.412-2.264 1.236-3.096.824-.848 1.864-1.272 3.12-1.272 1.248 0 2.284.424 3.108 1.272.832.848 1.248 1.88 1.248 3.096 0 1.208-.416 2.24-1.248 3.096-.824.848-1.86 1.272-3.108 1.272-1.256 0-2.296-.424-3.12-1.272-.824-.848-1.236-1.88-1.236-3.096zm15.442 4.368c-.991 0-1.843-.224-2.555-.672v-1.644a4.21 4.21 0 002.46.768c.512 0 .932-.124 1.26-.372.328-.256.492-.6.492-1.032 0-.408-.152-.736-.456-.984-.304-.256-.708-.384-1.212-.384a3.2 3.2 0 00-1.188.228v-1.14l2.004-1.848h-3.096V36.6h5.304v1.296l-1.896 1.74c.6.104 1.128.38 1.584.828.456.44.684 1.024.684 1.752 0 .896-.324 1.612-.972 2.148-.64.536-1.444.804-2.412.804zM71.05 45h-1.68v-2.1h-4.212v-1.248l4.188-5.052h1.704v4.908h1.236V42.9H71.05V45zm-1.68-6.228l-2.304 2.736h2.304v-2.736z" fill="#000"/><path opacity=".2" d="M44 98.5c0 1.381-1.79 2.5-4 2.5s-4-1.119-4-2.5c0-1.38 1.79-2.5 4-2.5s4 1.12 4 2.5z" fill="#C4C4C4"/><path d="M42 76h-4v13h4V76z" fill="#E6C783"/></svg>
